coffe/graphql.svg

<svg width="42" height="48" viewBox="0 0 42 48" fill="none" xmlns="http://www.w3.org/2000/svg">
<path d="M3.15646 15.3517L2.41404 14.0124L3.15646 13.5655V12.6619H4.65774L7.09303 11.1962C6.82298 10.898 6.51096 10.6391 6.16447 10.4298C5.2212 9.86474 4.10166 9.71248 3.05109 10.0067C2.00052 10.3009 1.10458 11.0175 0.559492 11.9995C0.0172438 12.9835 -0.128879 14.1516 0.153193 15.2478C0.435266 16.344 1.1225 17.279 2.06426 17.8476C2.4088 18.054 2.77684 18.2053 3.15646 18.2999V15.3517Z" fill="#A07250"/>
<path d="M5.10764 14.7384L3.38963 15.7724L3.15646 15.3517V18.2999C3.79311 18.4585 4.4623 18.4576 5.10764 18.2895V14.7384Z" fill="#A07250"/>
<path d="M5.17764 18.2705C6.22822 17.9763 7.12419 17.2597 7.66928 16.2778C8.21105 15.2939 8.35684 14.1245 8.07479 13.0287C8.06914 13.0067 8.06333 12.9849 8.05735 12.963L5.10764 14.7384V18.2895C5.13101 18.2834 5.15434 18.2771 5.17764 18.2705Z" fill="#A07250"/>
<path d="M7.09303 11.1962L4.65774 12.6619H5.10764V14.7384L8.05735 12.963C7.87488 12.2965 7.54195 11.692 7.09303 11.1962Z" fill="#A07250"/>
<path d="M3.15646 15.3517L3.38963 15.7724L5.10764 14.7384V12.6619H4.65774L3.15646 13.5655V15.3517Z" fill="#A07250"/>
<path d="M2.41404 14.0124L3.15646 15.3517V13.5655L2.41404 14.0124Z" fill="#A07250"/>
<path d="M3.15646 12.6619V13.5655L4.65774 12.6619H3.15646Z" fill="#A07250"/>
<path d="M3.15646 29.7041C3.79275 29.5433 4.46194 29.5421 5.10764 29.7081V18.2895C4.4623 18.4576 3.79311 18.4585 3.15646 18.2999V29.7041Z" fill="#A07250"/>
<path d="M3.73936 36.5821L2.05202 35.5646L2.42926 34.883H1.66393V32.8478H3.0445L3.15646 32.6458V29.7041C2.78119 29.7989 2.41737 29.9492 2.07655 30.1534C1.13521 30.7219 0.448278 31.6564 0.166227 32.7522C-0.115823 33.848 0.0299732 35.0159 0.571736 35.9998C1.69765 38.0478 4.20258 38.7454 6.17676 37.5694C6.5186 37.3629 6.8269 37.1082 7.09443 36.815L4.64113 35.3375H4.42826L3.73936 36.5821Z" fill="#A07250"/>
<path d="M7.68153 31.723C7.48367 31.3665 7.23958 31.0451 6.95866 30.7661L5.80638 32.8478H8.11183C8.02095 32.4569 7.87701 32.078 7.68153 31.723Z" fill="#A07250"/>
<path d="M5.45605 33.4807L7.78458 34.883H8.10862C8.26753 34.2094 8.26615 33.5114 8.11183 32.8478H5.80638L5.45605 33.4807Z" fill="#A07250"/>
<path d="M5.10764 30.0443V32.8478H5.80638L6.95866 30.7661C6.48508 30.2957 5.9068 29.9461 5.26878 29.7532L5.10764 30.0443Z" fill="#A07250"/>
<path d="M3.76815 32.4642L4.4051 32.8478H5.10764V30.0443L3.76815 32.4642Z" fill="#A07250"/>
<path d="M5.10764 29.7081C4.46194 29.5421 3.79275 29.5433 3.15646 29.7041V32.6458L3.38502 32.2335L3.76815 32.4642L5.10764 30.0443V29.7081Z" fill="#A07250"/>
<path d="M3.15646 34.4434L3.88649 34.883H4.67983L5.10764 34.1101V33.2709L4.4051 32.8478H3.55582L3.15646 33.5693V34.4434Z" fill="#A07250"/>
<path d="M7.78458 34.883L5.45605 33.4807L5.10764 34.1101V34.883H7.78458Z" fill="#A07250"/>
<path d="M4.64113 35.3375L7.09443 36.815C7.54525 36.3209 7.88034 35.7176 8.06523 35.0521L7.78458 34.883H5.10764V35.3375H4.64113Z" fill="#A07250"/>
<path d="M2.05202 35.5646L3.73936 36.5821L4.42826 35.3375H3.15646V34.883H2.42926L2.05202 35.5646Z" fill="#A07250"/>
<path d="M3.15646 35.3375H4.42826L4.48148 35.2414L3.88649 34.883H3.15646V35.3375Z" fill="#A07250"/>
<path d="M4.67983 34.883H3.88649L4.48148 35.2414L4.67983 34.883Z" fill="#A07250"/>
<path d="M4.64113 35.3375H5.10764V34.883H4.67983L4.48148 35.2414L4.64113 35.3375Z" fill="#A07250"/>
<path d="M5.10764 34.1101L4.67983 34.883H5.10764V34.1101Z" fill="#A07250"/>
<path d="M3.88649 34.883L3.15646 34.4434V34.883H3.88649Z" fill="#A07250"/>
<path d="M2.79358 34.2248L2.42926 34.883H3.15646V34.4434L2.79358 34.2248Z" fill="#A07250"/>
<path d="M1.66393 32.8478V34.883H2.42926L2.79358 34.2248L2.40943 33.9935L3.0445 32.8478H1.66393Z" fill="#A07250"/>
<path d="M3.0445 32.8478L2.40943 33.9935L2.79358 34.2248L3.15646 33.5693V32.8478H3.0445Z" fill="#A07250"/>
<path d="M3.15646 34.4434V33.5693L2.79358 34.2248L3.15646 34.4434Z" fill="#A07250"/>
<path d="M3.38502 32.2335L3.15646 32.6458V32.8478H3.55582L3.76815 32.4642L3.38502 32.2335Z" fill="#A07250"/>
<path d="M3.15646 33.5693L3.55582 32.8478H3.15646V33.5693Z" fill="#A07250"/>
<path d="M3.15646 32.6458L3.0445 32.8478H3.15646V32.6458Z" fill="#A07250"/>
<path d="M4.4051 32.8478L3.76815 32.4642L3.55582 32.8478H4.4051Z" fill="#A07250"/>
<path d="M5.10764 32.8478H4.4051L5.10764 33.2709V32.8478Z" fill="#A07250"/>
<path d="M5.45605 33.4807L5.80638 32.8478H5.10764V33.2709L5.45605 33.4807Z" fill="#A07250"/>
<path d="M5.10764 33.2709V34.1101L5.45605 33.4807L5.10764 33.2709Z" fill="#A07250"/>
<path d="M20.0528 42.9296L20.9041 44.4688L22.119 43.7372L22.211 43.5712L20.5992 42.6005L20.0528 42.9296Z" fill="#A07250"/>
<path d="M23.9011 41.3457C23.7866 41.1668 23.6599 40.9979 23.5222 40.8403L20.5992 42.6005L22.211 43.5712L22.119 43.7372L24.3829 42.3738C24.2678 42.0121 24.1062 41.6661 23.9011 41.3457Z" fill="#A07250"/>
<path d="M20.9041 44.4688L20.0528 42.9296L20.5992 42.6005L17.5344 40.7548C17.0764 41.2512 16.7411 41.8545 16.5553 42.5126L21.2354 45.3312L22.119 43.7372L20.9041 44.4688Z" fill="#A07250"/>
<path d="M19.6906 39.525C18.8949 39.6899 18.1639 40.0973 17.5901 40.6956C17.5713 40.7152 17.5528 40.7349 17.5344 40.7548L20.5992 42.6005L23.5222 40.8403C23.118 40.3775 22.6196 40.0108 22.0606 39.7691C21.3112 39.445 20.4864 39.3601 19.6906 39.525Z" fill="#A07250"/>
<path d="M18.2109 47.2787C18.8855 47.7489 19.6786 48 20.4899 48C21.5767 47.9975 22.6184 47.5461 23.3871 46.7446C24.1557 45.9431 24.5888 44.8568 24.5916 43.7231C24.5918 43.2621 24.5206 42.8067 24.3829 42.3738L22.119 43.7372L21.2354 45.3312L16.5553 42.5126C16.5206 42.6354 16.4911 42.76 16.4671 42.8862C16.3087 43.7161 16.3898 44.5766 16.7002 45.3585C17.0106 46.1404 17.5364 46.8085 18.2109 47.2787Z" fill="#A07250"/>
<path d="M8.06523 35.0521C7.88034 35.7176 7.54525 36.3209 7.09443 36.815L16.5553 42.5126C16.7411 41.8545 17.0764 41.2512 17.5344 40.7548L8.06523 35.0521Z" fill="#A07250"/>
<path d="M33.7911 36.7081C33.4123 36.2638 33.1234 35.7388 32.9474 35.1644L23.5222 40.8403C23.6599 40.9979 23.7866 41.1668 23.9011 41.3457C24.1062 41.6661 24.2678 42.0121 24.3829 42.3738L33.7911 36.7081Z" fill="#A07250"/>
<path d="M36.0672 35.3375H35.8723V34.883H33.4145L32.9474 35.1644C33.1234 35.7388 33.4123 36.2638 33.7911 36.7081L36.0672 35.3375Z" fill="#A07250"/>
<path d="M35.8723 34.105L36.3029 34.883H36.8218L37.2789 34.6078L36.4275 33.0686L35.8723 33.403V34.105Z" fill="#A07250"/>
<path d="M33.4145 34.883H35.8723V34.105L35.5808 33.5785L33.4145 34.883Z" fill="#A07250"/>
<path d="M32.868 32.8478C32.7137 33.5114 32.7123 34.2094 32.8712 34.883H33.4145L35.5808 33.5785L35.1763 32.8478H32.868Z" fill="#A07250"/>
<path d="M35.8723 33.403V32.8478H35.1763L35.5808 33.5785L35.8723 33.403Z" fill="#A07250"/>
<path d="M36.3029 34.883L35.8723 34.105V34.883H36.3029Z" fill="#A07250"/>
<path d="M35.8723 35.3375H36.0672L36.4327 35.1174L36.3029 34.883H35.8723V35.3375Z" fill="#A07250"/>
<path d="M37.8234 35.3375V34.883H36.8218L36.4327 35.1174L36.5545 35.3375H37.8234Z" fill="#A07250"/>
<path d="M39.3036 34.883V32.8478H37.8234V33.5639L38.5536 34.883H39.3036Z" fill="#A07250"/>
<path d="M36.4275 33.0686L37.2789 34.6078L36.8218 34.883H37.8234V33.5639L37.427 32.8478H35.8723V33.403L36.4275 33.0686Z" fill="#A07250"/>
<path d="M37.8234 29.7041C37.1871 29.5434 36.5179 29.5421 35.8723 29.7081V30.0392L37.427 32.8478H37.8234V29.7041Z" fill="#A07250"/>
<path d="M35.8723 32.8478H37.427L35.8723 30.0392V32.8478Z" fill="#A07250"/>
<path d="M35.7135 29.7524C35.0753 29.945 34.4968 30.2942 34.023 30.7643L35.1763 32.8478H35.8723V30.0392L35.7135 29.7524Z" fill="#A07250"/>
<path d="M32.868 32.8478H35.1763L34.023 30.7643C33.7413 31.0437 33.4966 31.3658 33.2983 31.723C33.1028 32.078 32.9589 32.4569 32.868 32.8478Z" fill="#A07250"/>
<path d="M38.5536 34.883L37.8234 33.5639V34.883H38.5536Z" fill="#A07250"/>
<path d="M36.4327 35.1174L36.0672 35.3375H36.5545L36.4327 35.1174Z" fill="#A07250"/>
<path d="M36.8218 34.883H36.3029L36.4327 35.1174L36.8218 34.883Z" fill="#A07250"/>
<path d="M35.8723 34.105V33.403L35.5808 33.5785L35.8723 34.105Z" fill="#A07250"/>
<path d="M37.8234 33.5639V32.8478H37.427L37.8234 33.5639Z" fill="#A07250"/>
<path d="M37.2436 36.5823L38.9309 35.5646L38.5536 34.883H37.8234V35.3375H36.5545L37.2436 36.5823Z" fill="#A07250"/>
<path d="M32.8927 34.9704C32.9095 35.0356 32.9277 35.1003 32.9474 35.1644L33.4145 34.883H32.8712C32.8781 34.9122 32.8852 34.9413 32.8927 34.9704Z" fill="#A07250"/>
<path d="M8.11183 32.8478C8.26615 33.5114 8.26753 34.2094 8.10862 34.883H32.8712C32.7123 34.2094 32.7137 33.5114 32.868 32.8478H8.11183Z" fill="#A07250"/>
<path d="M19.3455 8.38784C19.2011 8.34426 19.0588 8.29233 18.9193 8.23218C18.4506 8.03014 18.0223 7.73921 17.6559 7.37441L5.26878 29.7532C5.9068 29.9461 6.48508 30.2957 6.95866 30.7661L19.3455 8.38784Z" fill="#A07250"/>
<path d="M23.324 7.37108C22.9574 7.7365 22.5288 8.02801 22.0597 8.23035C21.9208 8.29029 21.779 8.3422 21.6352 8.38587L34.023 30.7643C34.4968 30.2942 35.0753 29.945 35.7135 29.7524L23.324 7.37108Z" fill="#A07250"/>
<path d="M20.1425 5.68932L17.8124 7.09173L17.6559 7.37441C18.0223 7.73921 18.4506 8.03014 18.9193 8.23218C19.0588 8.29233 19.2011 8.34426 19.3455 8.38784L20.4909 6.31865L20.1425 5.68932Z" fill="#A07250"/>
<path d="M19.3455 8.38784C19.7167 8.49985 20.102 8.55671 20.4899 8.5561C20.8782 8.55655 21.2637 8.49866 21.6352 8.38587L20.4909 6.31865L19.3455 8.38784Z" fill="#A07250"/>
<path d="M23.1728 7.09794L20.8377 5.69196L20.4909 6.31865L21.6352 8.38587C21.779 8.3422 21.9208 8.29029 22.0597 8.23035C22.5288 8.02801 22.9574 7.7365 23.324 7.37108L23.1728 7.09794Z" fill="#A07250"/>
<path d="M21.8306 4.67328L21.1873 5.06049L20.8377 5.69196L23.1728 7.09794L21.8306 4.67328Z" fill="#A07250"/>
<path d="M17.8124 7.09173L20.1425 5.68932L19.7971 5.06539L19.1498 4.67563L17.8124 7.09173Z" fill="#A07250"/>
<path d="M18.7627 4.44257L18.9873 4.03736L16.5575 5.49981C16.5976 5.64075 16.6447 5.77969 16.6987 5.91604C16.8961 6.41401 17.1819 6.86831 17.5408 7.25518L17.8124 7.09173L19.1498 4.67563L18.7627 4.44257Z" fill="#A07250"/>
<path d="M7.09303 11.1962C7.54195 11.692 7.87488 12.2965 8.05735 12.963L17.5408 7.25518C17.1819 6.86831 16.8961 6.41401 16.6987 5.91604C16.6447 5.77969 16.5976 5.64075 16.5575 5.49981L7.09303 11.1962Z" fill="#A07250"/>
<path d="M20.8704 1.56722L22.5576 2.58476L21.8837 3.80224L22.0272 4.06097L24.4197 5.50186C24.5329 5.10529 24.5906 4.69289 24.5901 4.27759C24.5901 3.14308 24.1581 2.05504 23.389 1.25283C22.6199 0.450609 21.5768 0 20.4892 0C19.4015 0 18.3584 0.450609 17.5893 1.25283C16.8202 2.05504 16.3882 3.14308 16.3882 4.27759C16.3876 4.69214 16.4448 5.10385 16.5575 5.49981L18.9873 4.03736L19.1078 3.82009L18.4222 2.58164L20.1095 1.56411L20.4908 2.25293L20.8704 1.56722Z" fill="#A07250"/>
<path d="M23.4352 7.25593C23.7951 6.86873 24.0815 6.41383 24.2792 5.91513C24.3329 5.77972 24.3798 5.64178 24.4197 5.50186L22.0272 4.06097L22.2325 4.4314L21.8306 4.67328L23.1728 7.09794L23.4352 7.25593Z" fill="#A07250"/>
<path d="M20.1425 5.68932L20.4909 6.31865L20.8377 5.69196L20.488 5.48137L20.1425 5.68932Z" fill="#A07250"/>
<path d="M20.4881 3.13409L20.856 2.91266L20.4908 2.25293L20.1243 2.91501L20.4881 3.13409Z" fill="#A07250"/>
<path d="M20.4881 3.13409L20.1243 2.91501L19.7607 3.57187L20.4881 3.13409Z" fill="#A07250"/>
<path d="M20.856 2.91266L20.4881 3.13409L21.2239 3.5772L20.856 2.91266Z" fill="#A07250"/>
<path d="M21.8306 4.67328L22.2325 4.4314L22.0272 4.06097L21.8122 3.93151L21.6161 4.28576L21.8306 4.67328Z" fill="#A07250"/>
<path d="M18.7627 4.44257L19.1498 4.67563L19.3656 4.2858L19.1679 3.92869L18.9873 4.03736L18.7627 4.44257Z" fill="#A07250"/>
<path d="M19.1679 3.92869L19.3656 4.2858L19.7607 3.57187L19.1679 3.92869Z" fill="#A07250"/>
<path d="M19.1078 3.82009L18.9873 4.03736L19.1679 3.92869L19.1078 3.82009Z" fill="#A07250"/>
<path d="M22.0272 4.06097L21.8837 3.80224L21.8122 3.93151L22.0272 4.06097Z" fill="#A07250"/>
<path d="M21.6161 4.28576L21.8122 3.93151L21.2239 3.5772L21.6161 4.28576Z" fill="#A07250"/>
<path d="M19.7971 5.06539L20.1425 5.68932L20.488 5.48137L19.7971 5.06539Z" fill="#A07250"/>
<path d="M20.8377 5.69196L21.1873 5.06049L20.488 5.48137L20.8377 5.69196Z" fill="#A07250"/>
<path d="M19.1498 4.67563L19.7971 5.06539L19.3656 4.2858L19.1498 4.67563Z" fill="#A07250"/>
<path d="M21.1873 5.06049L21.8306 4.67328L21.6161 4.28576L21.1873 5.06049Z" fill="#A07250"/>
<path d="M22.5576 2.58476L20.8704 1.56722L20.4908 2.25293L20.856 2.91266L21.2569 2.67137L21.8837 3.80224L22.5576 2.58476Z" fill="#A07250"/>
<path d="M20.1095 1.56411L18.4222 2.58164L19.1078 3.82009L19.7383 2.68254L20.1243 2.91501L20.4908 2.25293L20.1095 1.56411Z" fill="#A07250"/>
<path d="M19.7383 2.68254L19.1078 3.82009L19.1679 3.92869L19.7607 3.57187L20.1243 2.91501L19.7383 2.68254Z" fill="#A07250"/>
<path d="M21.8837 3.80224L21.2569 2.67137L20.856 2.91266L21.2239 3.5772L21.8122 3.93151L21.8837 3.80224Z" fill="#A07250"/>
<path d="M19.7971 5.06539L20.488 5.48137L21.1873 5.06049L21.6161 4.28576L21.2239 3.5772L20.4881 3.13409L19.7607 3.57187L19.3656 4.2858L19.7971 5.06539Z" fill="#A07250"/>
<path d="M35.8723 12.6619H36.3089L33.8845 11.2019C33.4363 11.6976 33.1041 12.302 32.922 12.968L35.8723 14.7444V12.6619Z" fill="#A07250"/>
<path d="M24.4197 5.50186C24.3798 5.64178 24.3329 5.77972 24.2792 5.91513C24.0815 6.41383 23.7951 6.86873 23.4352 7.25593L32.922 12.968C33.1041 12.302 33.4363 11.6976 33.8845 11.2019L24.4197 5.50186Z" fill="#A07250"/>
<path d="M32.905 13.032C32.623 14.1278 32.7688 15.2955 33.3105 16.2794C33.8556 17.2613 34.7516 17.9778 35.8022 18.272C35.8255 18.2785 35.8489 18.2849 35.8723 18.2909V14.7444L32.922 12.968C32.9162 12.9893 32.9105 13.0106 32.905 13.032Z" fill="#A07250"/>
<path d="M37.8234 15.3578L38.5643 14.0202L37.8234 13.574V15.3578Z" fill="#A07250"/>
<path d="M36.3089 12.6619H35.8723V14.7444L37.5902 15.7788L37.8234 15.3578V13.574L36.3089 12.6619Z" fill="#A07250"/>
<path d="M37.5902 15.7788L35.8723 14.7444V18.2909C36.5176 18.459 37.1868 18.4599 37.8234 18.3013V15.3578L37.5902 15.7788Z" fill="#A07250"/>
<path d="M37.8234 12.6619H36.3089L37.8234 13.574V12.6619Z" fill="#A07250"/>
<path d="M37.9287 10.01C36.8781 9.71578 35.7586 9.86786 34.8153 10.433C34.4679 10.6428 34.1551 10.9026 33.8845 11.2019L36.3089 12.6619H37.8234V13.574L38.5643 14.0202L37.8234 15.3578V18.3013C38.203 18.2067 38.571 18.0554 38.9155 17.849C39.8569 17.2805 40.5438 16.346 40.8259 15.2502C41.1079 14.1543 40.9621 12.9865 40.4203 12.0026C39.8752 11.0207 38.9793 10.3042 37.9287 10.01Z" fill="#A07250"/>
<path d="M35.8723 29.7081C36.5179 29.5421 37.1871 29.5434 37.8234 29.7041V18.3013C37.1868 18.4599 36.5176 18.459 35.8723 18.2909V29.7081Z" fill="#A07250"/>
<path d="M39.3036 32.8478V34.883H38.5536L38.9309 35.5646L37.2436 36.5823L36.5545 35.3375H36.0672L33.7911 36.7081C34.0796 37.0466 34.4203 37.3382 34.8031 37.5694C35.7463 38.1345 36.8659 38.2866 37.9164 37.9924C38.155 37.9209 38.3798 37.8348 38.5909 37.7359C40.905 36.651 41.5661 34.0171 40.5508 31.9935C40.0502 30.9957 39.142 30.1462 37.8234 29.7041V32.8478H39.3036Z" fill="#A07250"/>
</svg>

<svg xmlns="http://www.w3.org/2000/svg" width="41" height="48" fill="none"><path fill="#A07250" d="m3.16 15.35-.75-1.34.75-.44v-.9h1.5l2.43-1.47A3.96 3.96 0 0 0 3.05 10 4.14 4.14 0 0 0 .55 12a4.45 4.45 0 0 0-.4 3.25 4.27 4.27 0 0 0 3 3.05v-2.95Z"/><path fill="#A07250" d="M5.1 14.74 3.4 15.77l-.23-.42v2.95c.63.16 1.3.16 1.95-.01v-3.55Z"/><path fill="#A07250" d="M5.18 18.27a4.14 4.14 0 0 0 2.49-2 4.45 4.45 0 0 0 .39-3.3L5.1 14.73v3.55l.07-.02Z"/><path fill="#A07250" d="m7.1 11.2-2.44 1.46h.45v2.08l2.95-1.78a4.34 4.34 0 0 0-.97-1.76Z"/><path fill="#A07250" d="m3.16 15.35.23.42 1.72-1.03v-2.08h-.45l-1.5.9v1.8ZM2.41 14.01l.75 1.34v-1.78L2.4 14Z"/><path fill="#A07250" d="M3.16 12.66v.9l1.5-.9h-1.5ZM3.16 29.7c.63-.16 1.3-.16 1.95 0V18.3c-.65.17-1.32.17-1.95.01v11.4Z"/><path fill="#A07250" d="m3.74 36.58-1.69-1.02.38-.68h-.77v-2.03h1.38l.12-.2V29.7a4.27 4.27 0 0 0-2.99 3.05A4.45 4.45 0 0 0 .57 36a4.01 4.01 0 0 0 6.52.81l-2.45-1.47h-.21l-.7 1.24ZM7.68 31.72c-.2-.35-.44-.67-.72-.95L5.8 32.85h2.3a4.4 4.4 0 0 0-.43-1.13Z"/><path fill="#A07250" d="m5.46 33.48 2.32 1.4h.33c.16-.67.16-1.37 0-2.03h-2.3l-.35.63ZM5.1 30.04v2.8h.7l1.16-2.07a4.07 4.07 0 0 0-1.7-1.02l-.15.3Z"/><path fill="#A07250" d="m3.77 32.46.64.39h.7v-2.8l-1.34 2.41ZM5.1 29.7a3.94 3.94 0 0 0-1.94 0v2.95l.23-.42.38.23 1.34-2.42v-.33Z"/><path fill="#A07250" d="m3.16 34.44.73.44h.79l.43-.77v-.84l-.7-.42h-.85l-.4.72v.87ZM7.78 34.88l-2.32-1.4-.35.63v.77h2.67Z"/><path fill="#A07250" d="M4.64 35.34 7.1 36.8c.46-.49.79-1.1.98-1.76l-.29-.17H5.11v.46h-.47ZM2.05 35.56l1.69 1.02.69-1.24H3.16v-.46h-.73l-.38.68Z"/><path fill="#A07250" d="M3.16 35.34h1.27l.05-.1-.6-.36h-.72v.46ZM4.68 34.88h-.8l.6.36.2-.36Z"/><path fill="#A07250" d="M4.64 35.34h.47v-.46h-.43l-.2.36.16.1ZM5.1 34.11l-.42.77h.43v-.77ZM3.89 34.88l-.73-.44v.44h.73ZM2.8 34.22l-.37.66h.73v-.44l-.37-.22Z"/><path fill="#A07250" d="M1.66 32.85v2.03h.77l.36-.66-.38-.23.63-1.14H1.66Z"/><path fill="#A07250" d="m3.04 32.85-.63 1.14.38.23.37-.65v-.72h-.12ZM3.16 34.44v-.87l-.37.65.37.22ZM3.39 32.23l-.23.42v.2h.4l.2-.39-.37-.23ZM3.16 33.57l.4-.72h-.4v.72ZM3.16 32.65l-.12.2h.12v-.2ZM4.4 32.85l-.63-.39-.21.39h.85ZM5.1 32.85h-.7l.7.42v-.42ZM5.46 33.48l.35-.63h-.7v.42l.35.21ZM5.1 33.27v.84l.36-.63-.35-.2ZM20.05 42.93l.85 1.54 1.22-.73.1-.17-1.62-.97-.55.33Z"/><path fill="#A07250" d="M23.9 41.35a4.25 4.25 0 0 0-.38-.51L20.6 42.6l1.61.97-.1.17 2.27-1.37c-.11-.36-.27-.7-.48-1.02Z"/><path fill="#A07250" d="m20.9 44.47-.85-1.54.55-.33-3.07-1.85c-.45.5-.79 1.1-.97 1.76l4.68 2.82.88-1.6-1.22.74ZM19.7 39.52a4.05 4.05 0 0 0-2.17 1.23l3.07 1.85 2.92-1.76a3.94 3.94 0 0 0-3.83-1.32Z"/><path fill="#A07250" d="M18.21 47.28a3.98 3.98 0 0 0 5.18-.54 4.38 4.38 0 0 0 1-4.37l-2.27 1.37-.88 1.6-4.68-2.83a4.39 4.39 0 0 0 1.65 4.77Z"/><path fill="#A07250" d="M8.07 35.05a4.34 4.34 0 0 1-.98 1.77l9.47 5.7c.18-.67.52-1.27.97-1.77l-9.46-5.7ZM33.8 36.7a4.34 4.34 0 0 1-.85-1.54l-9.43 5.68a4.25 4.25 0 0 1 .86 1.53l9.41-5.66Z"/><path fill="#A07250" d="M36.07 35.34h-.2v-.46h-2.46l-.46.28c.17.58.46 1.1.84 1.55l2.28-1.37ZM35.87 34.1l.43.78h.52l.46-.27-.85-1.54-.56.33v.7ZM33.41 34.88h2.46v-.78l-.29-.52-2.17 1.3Z"/><path fill="#A07250" d="M32.87 32.85a4.47 4.47 0 0 0 0 2.03h.54l2.17-1.3-.4-.73h-2.31Z"/><path fill="#A07250" d="M35.87 33.4v-.55h-.7l.41.73.3-.18ZM36.3 34.88l-.43-.78v.78h.43ZM35.87 35.34h.2l.36-.22-.13-.24h-.43v.46ZM37.82 35.34v-.46h-1l-.39.24.12.22h1.27ZM39.3 34.88v-2.03h-1.48v.71l.73 1.32h.75Z"/><path fill="#A07250" d="m36.43 33.07.85 1.54-.46.27h1v-1.32l-.4-.71h-1.55v.55l.56-.33ZM37.82 29.7a3.95 3.95 0 0 0-1.95 0v.34l1.56 2.8h.4V29.7Z"/><path fill="#A07250" d="M35.87 32.85h1.56l-1.56-2.81v2.8Z"/><path fill="#A07250" d="M35.71 29.75c-.63.2-1.21.54-1.69 1.01l1.16 2.09h.7v-2.81l-.17-.29ZM32.87 32.85h2.3l-1.15-2.09a4.26 4.26 0 0 0-1.15 2.09ZM38.55 34.88l-.73-1.32v1.32h.73ZM36.43 35.12l-.36.22h.48l-.12-.22Z"/><path fill="#A07250" d="M36.82 34.88h-.52l.13.24.4-.24ZM35.87 34.1v-.7l-.29.18.3.52ZM37.82 33.56v-.71h-.4l.4.71ZM37.24 36.58l1.7-1.02-.39-.68h-.73v.46h-1.27l.7 1.24ZM32.9 34.97l.05.2.46-.29h-.54l.02.09ZM8.11 32.85c.16.66.16 1.36 0 2.03h24.76a4.47 4.47 0 0 1 0-2.03H8.1ZM19.35 8.39a3.98 3.98 0 0 1-1.7-1.02L5.28 29.75c.64.2 1.22.55 1.69 1.02L19.35 8.39ZM23.32 7.37a4.08 4.08 0 0 1-1.68 1.02l12.38 22.37a4.07 4.07 0 0 1 1.7-1L23.31 7.36Z"/><path fill="#A07250" d="m20.14 5.69-2.33 1.4-.15.28a4.08 4.08 0 0 0 1.69 1.02l1.14-2.07-.35-.63Z"/><path fill="#A07250" d="M19.35 8.39a3.94 3.94 0 0 0 2.29 0l-1.15-2.07-1.14 2.07ZM23.17 7.1l-2.33-1.4-.35.62 1.15 2.07a4.02 4.02 0 0 0 1.68-1.02l-.15-.27ZM21.83 4.67l-.64.39-.35.63 2.33 1.4-1.34-2.42ZM17.81 7.1l2.33-1.41-.34-.62-.65-.4-1.34 2.42Z"/><path fill="#A07250" d="m18.76 4.44.23-.4-2.43 1.46a4.4 4.4 0 0 0 .98 1.76l.27-.17 1.34-2.41-.39-.24Z"/><path fill="#A07250" d="M7.1 11.2c.44.5.77 1.1.96 1.76l9.48-5.7a4.3 4.3 0 0 1-.98-1.76l-9.47 5.7Z"/><path fill="#A07250" d="m20.87 1.57 1.69 1.01-.68 1.22.15.26 2.39 1.44a4.44 4.44 0 0 0-1.03-4.25A4.02 4.02 0 0 0 20.49 0c-1.09 0-2.13.45-2.9 1.25a4.37 4.37 0 0 0-1.03 4.25l2.43-1.46.12-.22-.69-1.24 1.69-1.02.38.7.38-.7Z"/><path fill="#A07250" d="M23.44 7.26a4.3 4.3 0 0 0 .98-1.76l-2.4-1.44.21.37-.4.24 1.34 2.43.27.16ZM20.14 5.69l.35.63.35-.63-.35-.2-.35.2ZM20.49 3.13l.37-.22-.37-.66-.37.67.37.21ZM20.49 3.13l-.37-.21-.36.65.73-.44ZM20.86 2.91l-.37.22.73.45-.36-.67Z"/><path fill="#A07250" d="m21.83 4.67.4-.24-.2-.37-.22-.13-.2.36.22.38ZM18.76 4.44l.39.24.22-.4-.2-.35-.18.1-.23.41Z"/><path fill="#A07250" d="m19.17 3.93.2.36.4-.72-.6.36Z"/><path fill="#A07250" d="m19.1 3.82-.11.22.18-.11-.06-.11ZM22.03 4.06l-.15-.26-.07.13.22.13Z"/><path fill="#A07250" d="m21.62 4.29.2-.36-.6-.35.4.7ZM19.8 5.07l.34.62.35-.2-.7-.42ZM20.84 5.7l.35-.64-.7.42.35.21ZM19.15 4.68l.65.39-.43-.78-.22.39ZM21.19 5.06l.64-.39-.21-.38-.43.77ZM22.56 2.58l-1.69-1.01-.38.68.37.66.4-.24.62 1.13.68-1.22Z"/><path fill="#A07250" d="m20.1 1.56-1.68 1.02.69 1.24.63-1.14.38.24.37-.67-.38-.69Z"/><path fill="#A07250" d="m19.74 2.68-.63 1.14.06.1.6-.35.35-.65-.38-.24ZM21.88 3.8l-.62-1.13-.4.24.36.67.6.35.06-.13Z"/><path fill="#A07250" d="m19.8 5.07.69.41.7-.42.43-.77-.4-.71-.73-.45-.73.44-.4.72.44.78ZM35.87 12.66h.44l-2.43-1.46c-.44.5-.78 1.1-.96 1.77l2.95 1.77v-2.08Z"/><path fill="#A07250" d="M24.42 5.5a4.38 4.38 0 0 1-.98 1.76l9.48 5.7c.18-.66.52-1.26.96-1.76l-9.46-5.7ZM32.9 13.03a4.45 4.45 0 0 0 .41 3.25 4.14 4.14 0 0 0 2.56 2.01v-3.55l-2.95-1.77-.02.06ZM37.82 15.36l.74-1.34-.74-.45v1.79ZM36.3 12.66h-.43v2.08l1.72 1.04.23-.42v-1.79l-1.51-.9Z"/><path fill="#A07250" d="m37.59 15.78-1.72-1.04v3.55c.65.17 1.32.17 1.95.01v-2.94l-.23.42ZM37.82 12.66h-1.51l1.51.91v-.9Z"/><path fill="#A07250" d="M37.93 10.01a3.96 3.96 0 0 0-4.05 1.2l2.43 1.45h1.51v.91l.74.45-.74 1.34v2.94c.38-.1.75-.24 1.1-.45a4.27 4.27 0 0 0 1.9-2.6c.29-1.1.14-2.26-.4-3.25a4.14 4.14 0 0 0-2.5-1.99ZM35.87 29.7a3.95 3.95 0 0 1 1.95 0V18.3c-.63.16-1.3.16-1.95 0v11.4ZM39.3 32.85v2.03h-.75l.38.68-1.69 1.02-.69-1.24h-.48l-2.28 1.37a3.96 3.96 0 0 0 4.8 1.03 4.2 4.2 0 0 0 1.96-5.75 4.6 4.6 0 0 0-2.73-2.29v3.15h1.48Z"/></svg>
